X: 14479
T: Gan Ainm
R: reel
M: 4/4
K: Gmajor
|:G2 BG dG BG|=F2 A=F c=F A=F|
G2 BG dG BG|Bd Ac BG GD:|
G2 BG cG BG|cG BG AG ED|
G2 BG cG BG|Bd Ac BG GD|
G2 BG cG BG|cG BG AG ED|
Bd dB dBAG|DE GA BG G2:|

